icons/svg/landuse/wetland.svg

<?xml version="1.0" encoding="UTF-8" standalone="no"?>
<!-- Created with Inkscape (http://www.inkscape.org/) -->

<svg
   xmlns:dc="http://purl.org/dc/elements/1.1/"
   xmlns:cc="http://creativecommons.org/ns#"
   xmlns:rdf="http://www.w3.org/1999/02/22-rdf-syntax-ns#"
   xmlns:svg="http://www.w3.org/2000/svg"
   xmlns="http://www.w3.org/2000/svg"
   xmlns:sodipodi="http://sodipodi.sourceforge.net/DTD/sodipodi-0.dtd"
   xmlns:inkscape="http://www.inkscape.org/namespaces/inkscape"
   version="1.0"
   width="580"
   height="580"
   id="svg2"
   sodipodi:version="0.32"
   inkscape:version="0.48.4 r9939"
   sodipodi:docname="wetland.svg"
   inkscape:output_extension="org.inkscape.output.svg.inkscape">
  <metadata
     id="metadata10">
    <rdf:RDF>
      <cc:Work
         rdf:about="">
        <dc:format>image/svg+xml</dc:format>
        <dc:type
           rdf:resource="http://purl.org/dc/dcmitype/StillImage" />
        <cc:license
           rdf:resource="http://web.resource.org/cc/PublicDomain" />
        <dc:language>en</dc:language>
        <dc:title />
      </cc:Work>
    </rdf:RDF>
  </metadata>
  <sodipodi:namedview
     inkscape:window-height="1003"
     inkscape:window-width="1400"
     inkscape:pageshadow="2"
     inkscape:pageopacity="0.0"
     guidetolerance="10.0"
     gridtolerance="10.0"
     objecttolerance="10.0"
     borderopacity="1.0"
     bordercolor="#666666"
     pagecolor="#ffffff"
     id="base"
     showgrid="false"
     inkscape:zoom="0.25"
     inkscape:cx="-160.86282"
     inkscape:cy="327.78417"
     inkscape:window-x="38"
     inkscape:window-y="12"
     inkscape:current-layer="svg2"
     showguides="true"
     inkscape:guide-bbox="true"
     inkscape:window-maximized="0" />
  <defs
     id="defs4">
    <inkscape:perspective
       sodipodi:type="inkscape:persp3d"
       inkscape:vp_x="0 : 290 : 1"
       inkscape:vp_y="0 : 1000 : 0"
       inkscape:vp_z="580 : 290 : 1"
       inkscape:persp3d-origin="290 : 193.33333 : 1"
       id="perspective12" />
    <style
       type="text/css"
       id="style6">
   
    .fil0 {fill:#EF7900}
   
  </style>
    <inkscape:perspective
       id="perspective6807"
       inkscape:persp3d-origin="29.116032 : 19.410688 : 1"
       inkscape:vp_z="58.232063 : 29.116032 : 1"
       inkscape:vp_y="0 : 1000 : 0"
       inkscape:vp_x="0 : 29.116032 : 1"
       sodipodi:type="inkscape:persp3d" />
    <inkscape:perspective
       id="perspective6954"
       inkscape:persp3d-origin="290 : 193.33333 : 1"
       inkscape:vp_z="580 : 290 : 1"
       inkscape:vp_y="0 : 1000 : 0"
       inkscape:vp_x="0 : 290 : 1"
       sodipodi:type="inkscape:persp3d" />
    <inkscape:perspective
       id="perspective2541"
       inkscape:persp3d-origin="240 : 160 : 1"
       inkscape:vp_z="480 : 240 : 1"
       inkscape:vp_y="0 : 1000 : 0"
       inkscape:vp_x="0 : 240 : 1"
       sodipodi:type="inkscape:persp3d" />
    <inkscape:perspective
       id="perspective2750"
       inkscape:persp3d-origin="215 : 143.33333 : 1"
       inkscape:vp_z="430 : 215 : 1"
       inkscape:vp_y="0 : 1000 : 0"
       inkscape:vp_x="0 : 215 : 1"
       sodipodi:type="inkscape:persp3d" />
    <inkscape:perspective
       id="perspective2830"
       inkscape:persp3d-origin="0.5 : 0.33333333 : 1"
       inkscape:vp_z="1 : 0.5 : 1"
       inkscape:vp_y="0 : 1000 : 0"
       inkscape:vp_x="0 : 0.5 : 1"
       sodipodi:type="inkscape:persp3d" />
    <inkscape:perspective
       id="perspective3648"
       inkscape:persp3d-origin="0.5 : 0.33333333 : 1"
       inkscape:vp_z="1 : 0.5 : 1"
       inkscape:vp_y="0 : 1000 : 0"
       inkscape:vp_x="0 : 0.5 : 1"
       sodipodi:type="inkscape:persp3d" />
    <inkscape:perspective
       id="perspective3675"
       inkscape:persp3d-origin="0.5 : 0.33333333 : 1"
       inkscape:vp_z="1 : 0.5 : 1"
       inkscape:vp_y="0 : 1000 : 0"
       inkscape:vp_x="0 : 0.5 : 1"
       sodipodi:type="inkscape:persp3d" />
  </defs>
  <g
     id="g1327">
    <path
       d="M 66.275,1.768 C 24.94,1.768 1.704,23.139 1.704,66.804 L 1.704,516.927 C 1.704,557.771 22.598,579.156 63.896,579.156 L 515.92,579.156 C 557.227,579.156 578.149,558.84 578.149,516.927 L 578.149,66.804 C 578.149,24.203 557.227,1.768 514.627,1.768 C 514.624,1.768 66.133,1.625 66.275,1.768 z"
       style="fill:#111111;stroke:#eeeeee;stroke-width:3.40799999"
       id="path1329" />
  </g>
  <path
     inkscape:connector-curvature="0"
     style="fill:#ffffff;fill-opacity:1;stroke:none"
     d="m 262.91609,283.41462 c -0.80584,-78.09174 2.30562,-92.28056 0.0792,-127.22552 -1.57007,-24.75859 -7.47066,-67.778344 0.32075,-64.824143 31.10828,11.794133 60.28475,301.337823 11.67923,301.337823 -16.86168,0 -20.22065,-30.36689 -12.08888,-109.28816 l 0.008,0 3e-5,0 z"
     id="path3683"
     sodipodi:nodetypes="csssccc" />
  <path
     inkscape:connector-curvature="0"
     sodipodi:nodetypes="csssscccsssc"
     id="path3685"
     d="m 456.26527,366.41507 c 0,-14.45826 4.03668,-38.08752 16.81913,-64.13137 16.30254,-33.21586 50.17183,-41.60137 14.2634,-31.48736 -15.57353,4.38641 -42.22281,27.40383 -53.87332,51.93468 -26.31429,55.40581 -22.21702,69.97176 2.99108,69.97176 10.88961,0 19.79932,-11.82945 19.79932,-26.28771 l 3.9e-4,0 z m -79.19725,-16.36423 c 0,-56.12881 18.08827,-90.92888 40.61949,-137.39868 23.20359,-47.85668 76.78171,-81.74497 26.01885,-50.90985 -74.52637,45.26986 -144.02176,230.96047 -86.43765,230.96047 10.88964,0 19.79931,-19.1933 19.79931,-42.65194 z"
     style="fill:#ffffff;fill-opacity:1;stroke:none" />
  <path
     inkscape:connector-curvature="0"
     style="fill:#ffffff;fill-opacity:1;stroke:none"
     d="m 451.84415,472.28421 c -24.98839,1.01954 -50.48228,0.82648 -74.97341,5.82554 -6.14643,3.51883 -2.53776,13.17572 4.26745,13.01639 37.27447,8.49393 76.15106,5.81209 114.20461,5.78781 16.32066,-0.73036 33.35732,-1.06033 48.68383,-6.74287 6.08616,-4.00725 1.94486,-13.62725 -5.05904,-13.169 -28.48844,-6.16866 -58.08966,-5.02599 -87.12344,-4.71787 z"
     id="path3687" />
  <path
     inkscape:connector-curvature="0"
     style="fill:#ffffff;fill-opacity:1;stroke:none"
     d="m 83.496326,366.41507 c 0,-14.45826 -4.036691,-38.08752 -16.819127,-64.13137 -16.302549,-33.21586 -50.171841,-41.60137 -14.263415,-31.48736 15.573539,4.38641 42.222819,27.40383 53.873336,51.93468 26.31426,55.40581 22.21699,69.97176 -2.99109,69.97176 -10.889617,0 -19.799315,-11.82945 -19.799315,-26.28771 l -3.89e-4,0 z m 79.197244,-16.36423 c 0,-56.12881 -18.08827,-90.92888 -40.61948,-137.39868 -23.203599,-47.85668 -76.781719,-81.74497 -26.018867,-50.90985 74.526367,45.26986 144.021757,230.96047 86.437657,230.96047 -10.88964,0 -19.79931,-19.1933 -19.79931,-42.65194 z"
     id="path3689"
     sodipodi:nodetypes="csssscccsssc" />
  <path
     inkscape:connector-curvature="0"
     style="fill:#ffffff;fill-opacity:1;stroke:none"
     d="m 212.04383,427.11025 c -46.99489,0.97412 -94.17244,1.18151 -141.000765,6.01732 -4.41893,1.00566 -6.61851,10.26392 -1.78079,12.8879 23.40461,7.42289 47.850385,5.8463 71.771565,7.59866 65.71653,1.96628 131.59588,2.88783 197.19197,-3.6919 4.63681,-1.31065 13.74548,-1.45411 12.75177,-10.86713 -3.2177,-8.94243 -12.36308,-5.95987 -18.12594,-7.72373 -40.18361,-4.39444 -80.52988,-4.34496 -120.80781,-4.22112 z"
     id="path3713" />
  <path
     inkscape:connector-curvature="0"
     style="fill:#ffffff;fill-opacity:1;stroke:none"
     d="m 185.0666,503.61752 c -20.37314,1.01954 -41.15842,0.82648 -61.12613,5.82554 -5.01121,3.51883 -2.06904,13.17572 3.47927,13.01639 30.39002,8.49393 62.08627,5.81209 93.11149,5.78781 13.3063,-0.73036 27.19636,-1.06033 39.69212,-6.74287 4.96208,-4.00725 1.58566,-13.62725 -4.12465,-13.169 -23.22674,-6.16866 -47.36074,-5.02599 -71.0321,-4.71787 z"
     id="path3687-6" />
</svg>

<svg width="580" height="580" viewBox="0 0 580 580" fill="none" xmlns="http://www.w3.org/2000/svg">
<g clip-path="url(#clip0)">
<path d="M66.275 1.7679C24.94 1.7679 1.70399 23.1389 1.70399 66.8039V516.927C1.70399 557.771 22.598 579.156 63.896 579.156H515.92C557.227 579.156 578.149 558.84 578.149 516.927V66.8039C578.149 24.2029 557.227 1.7679 514.627 1.7679C514.624 1.7679 66.133 1.6249 66.275 1.7679Z" fill="#111111" stroke="#EEEEEE" stroke-width="3.408"/>
<path d="M262.916 283.415C262.11 205.323 265.222 191.134 262.995 156.189C261.425 131.431 255.525 88.4108 263.316 91.365C294.424 103.159 323.601 392.703 274.995 392.703C258.134 392.703 254.775 362.336 262.906 283.415H262.914H262.914H262.916Z" fill="white"/>
<path d="M456.265 366.415C456.265 351.957 460.302 328.328 473.084 302.284C489.387 269.068 523.256 260.682 487.348 270.796C471.774 275.183 445.125 298.2 433.474 322.731C407.16 378.137 411.257 392.703 436.466 392.703C447.355 392.703 456.265 380.873 456.265 366.415H456.265ZM377.068 350.051C377.068 293.922 395.156 259.122 417.687 212.652C440.891 164.796 494.469 130.907 443.706 161.742C369.18 207.012 299.685 392.703 357.269 392.703C368.158 392.703 377.068 373.51 377.068 350.051V350.051Z" fill="white"/>
<path d="M451.844 472.284C426.856 473.304 401.362 473.111 376.871 478.11C370.724 481.629 374.333 491.286 381.138 491.126C418.413 499.62 457.289 496.938 495.343 496.914C511.663 496.184 528.7 495.854 544.027 490.171C550.113 486.164 545.971 476.544 538.968 477.002C510.479 470.834 480.878 471.976 451.844 472.284V472.284Z" fill="white"/>
<path d="M83.4963 366.415C83.4963 351.957 79.4596 328.328 66.6772 302.284C50.3746 269.068 16.5054 260.682 52.4138 270.796C67.9873 275.183 94.6366 298.2 106.287 322.731C132.601 378.137 128.504 392.703 103.296 392.703C92.4064 392.703 83.4967 380.873 83.4967 366.415H83.4963ZM162.694 350.051C162.694 293.922 144.605 259.122 122.074 212.652C98.8705 164.796 45.2924 130.907 96.0552 161.742C170.582 207.012 240.077 392.703 182.493 392.703C171.603 392.703 162.694 373.51 162.694 350.051V350.051Z" fill="white"/>
<path d="M212.044 427.11C165.049 428.084 117.871 428.292 71.0431 433.127C66.6241 434.133 64.4246 443.391 69.2623 446.015C92.6669 453.438 117.113 451.862 141.034 453.614C206.75 455.58 272.63 456.502 338.226 449.922C342.863 448.612 351.971 448.468 350.978 439.055C347.76 430.113 338.615 433.095 332.852 431.331C292.668 426.937 252.322 426.986 212.044 427.11V427.11Z" fill="white"/>
<path d="M185.067 503.618C164.693 504.637 143.908 504.444 123.94 509.443C118.929 512.962 121.871 522.619 127.42 522.459C157.81 530.953 189.506 528.272 220.531 528.247C233.838 527.517 247.728 527.187 260.223 521.504C265.185 517.497 261.809 507.877 256.099 508.335C232.872 502.167 208.738 503.309 185.067 503.618V503.618Z" fill="white"/>
</g>
<defs>
<clipPath id="clip0">
<path d="M0 0H580V580H0V0Z" fill="white"/>
</clipPath>
</defs>
</svg>
